X:34
T:Goin' Ashore
C:Roy Watrous, 1990
S:The Watrous Book, 1992
M:2/4
L:1/16
Q:1/4=90
K:G
%%MIDI program 72
%%MIDI transpose 8
%%MIDI ratio 3 1
(D2|{EF}G2)GF GABA|GABc d4|e2gg B2gg|AcBA GFED|G2GF GABA|
GABc d4|e2gg B2gg|AcBA G2::z2|{def}g2gg e2gg|d2gg B2gg|A2A2 AcBA|
GABc d4|{def}g2gg e2gg|d2gg B2gg|A2A2 AcBA|GDFA G2:|]

